X: 1
T: Tom Morrison's Reel
R: reel
S: Fiddle Hell Online 2022-3-26 handout for Fiddle Hell jam session
B: the Portland Collection 1 p.207
Z: 2022 John Chambers <jc:trillian.mit.edu>
N: Condensed from the original 6 staffs via repeats with multiple endings.
M: C|
L: 1/8
K: G
D2 "^A"|: "G"G2GB "D"AGED | "G"G3B d2Bd | "C"efge dcB \
[1,3 A | "D"GAFA EADE :|[2,4 G | "D"(3ABA G2 "G"G2 :|
"^B"|:\
ef |: "Em"g2ge "D"a2af | "C"gage "G"d2Bd | "C"efge dcB \
[1 A | "D"GAFA EADf :|[2 G | "D"(3ABA G2 "G"G2 :|[3 A | "D"GAFA EA"^->A2"DE |]

